X: 1
T: Miter\'itsa mou gliki\'a  [Am]
O: Greece
F: http://www.youtube.com/watch?v=0XgoZzk7pLY (score)
F: http://www.youtube.com/watch?v=XtPD_555BR4 (floyeri)
F: http://www.youtube.com/watch?v=ENvVsxrEefY (lyra)
M: 2/4
L: 1/16
Q: 1/4=120-126 3/16 1/16 2/16 2/16
K: Am
|: "Am"[c2A2]{d}ee e2e2 | e2e2 e2d2 | "G"B2{c}d2 d2c2 | "Am"B2A2 A2-A2 :|
w: 1.- Mi-te-ri-tsa mou gli-kia,* the-lo mi 'ga-pi-ti-kia.*
w: 2.- I-the-la na-'rtho to vra-di, m'e-pla-se psi-li vro-hi.*
|: "G"G2{A}BB B2B2 | B2B2 B2-B2 | B2{c}d2 d2c2 | "Am"{c}B2A2 A2-A2 :|
w: 1.- Mav-ra ma-tia ke me-ga-la, zi-mo-me-na me to ga-la.
w: 2.- To theo pa-ra-ka-lou-sa,* yia na se vro mo-na-hi.*
